small/extra/apps/standard/vim.svg

<?xml version="1.0" encoding="UTF-8" standalone="no"?>
<svg
   xmlns:dc="http://purl.org/dc/elements/1.1/"
   xmlns:cc="http://creativecommons.org/ns#"
   xmlns:rdf="http://www.w3.org/1999/02/22-rdf-syntax-ns#"
   xmlns:svg="http://www.w3.org/2000/svg"
   xmlns="http://www.w3.org/2000/svg"
   xmlns:sodipodi="http://sodipodi.sourceforge.net/DTD/sodipodi-0.dtd"
   xmlns:inkscape="http://www.inkscape.org/namespaces/inkscape"
   viewBox="0 0 512 512"
   id="svg2"
   version="1.1"
   inkscape:version="0.91+devel r13804 custom"
   sodipodi:docname="vim.svg">
  <metadata
     id="metadata472">
    <rdf:RDF>
      <cc:Work
         rdf:about="">
        <dc:format>image/svg+xml</dc:format>
        <dc:type
           rdf:resource="http://purl.org/dc/dcmitype/StillImage" />
        <dc:title></dc:title>
      </cc:Work>
    </rdf:RDF>
  </metadata>
  <sodipodi:namedview
     pagecolor="#ffffff"
     bordercolor="#666666"
     borderopacity="1"
     objecttolerance="10"
     gridtolerance="10"
     guidetolerance="10"
     inkscape:pageopacity="0"
     inkscape:pageshadow="2"
     inkscape:window-width="1366"
     inkscape:window-height="709"
     id="namedview470"
     showgrid="false"
     inkscape:zoom="0.4609375"
     inkscape:cx="683.38983"
     inkscape:cy="174.88241"
     inkscape:window-x="-2"
     inkscape:window-y="-3"
     inkscape:window-maximized="1"
     inkscape:current-layer="svg2" />
  <defs
     id="defs4" />
  <path
     style="fill:none;stroke:#ffffff;stroke-width:21.64500046;stroke-linecap:round;stroke-linejoin:round"
     d="m 291.41,155.27 c 34.72,2.704 58.758,18.671 61.31,61.31"
     id="1"
     inkscape:connector-curvature="0" />
  <path
     inkscape:connector-curvature="0"
     d="M 26,0 C 11.603,0 0,11.603 0,26 l 0,460 c 0,14.397 11.603,26 26,26 l 460,0 c 14.397,0 26,-11.603 26,-26 L 512,26 C 512,11.603 500.397,0 486,0 L 26,0"
     style="fill:#8db173"
     id="path328546" />
  <text
     sodipodi:linespacing="125%"
     y="-212.64"
     x="93.639999"
     line-height="125%"
     style="font-size:129.22999573px;line-height:125%;font-family:'Gentium Book Basic';letter-spacing:0;word-spacing:0"
     id="text328548">
    <tspan
       y="-212.64"
       x="93.639999"
       id="tspan328550" />
  </text>
  <text
     transform="scale(4.0128205,0.24920128)"
     y="-1202.424"
     x="220.41887"
     style="font-size:46.95399857px;font-family:Arial;text-anchor:middle"
     id="text328552" />
  <text
     sodipodi:linespacing="125%"
     y="-292.64001"
     x="674.90997"
     line-height="125%"
     style="font-size:129.22999573px;line-height:125%;font-family:'Gentium Book Basic';letter-spacing:0;word-spacing:0"
     id="text328554">
    <tspan
       y="-292.64001"
       x="674.90997"
       id="tspan328556" />
  </text>
  <text
     transform="scale(4.0128205,0.24920128)"
     y="-1523.4622"
     x="365.26813"
     style="font-size:46.95399857px;font-family:Arial;text-anchor:middle"
     id="text328558" />
  <text
     sodipodi:linespacing="125%"
     y="-473.89999"
     x="-396.67001"
     line-height="125%"
     style="font-size:129.22999573px;line-height:125%;font-family:'Gentium Book Basic';letter-spacing:0;word-spacing:0"
     id="text328560">
    <tspan
       y="-473.89999"
       x="-396.67001"
       id="tspan328562" />
  </text>
  <text
     transform="scale(4.0128205,0.24920128)"
     y="-2250.8086"
     x="98.2295"
     style="font-size:46.95399857px;font-family:Arial;text-anchor:middle"
     id="text328564" />
  <text
     sodipodi:linespacing="125%"
     y="-690.37"
     x="701.38"
     line-height="125%"
     style="font-size:129.22999573px;line-height:125%;font-family:'Gentium Book Basic';letter-spacing:0;word-spacing:0"
     id="text328566">
    <tspan
       y="-690.37"
       x="701.38"
       id="tspan328568" />
  </text>
  <text
     transform="scale(4.0128205,0.24920128)"
     y="-3119.4741"
     x="371.8681"
     style="font-size:46.95399857px;font-family:Arial;text-anchor:middle"
     id="text328570" />
  <text
     sodipodi:linespacing="125%"
     y="-770.37"
     x="1282.65"
     line-height="125%"
     style="font-size:129.22999573px;line-height:125%;font-family:'Gentium Book Basic';letter-spacing:0;word-spacing:0"
     id="text328572">
    <tspan
       y="-770.37"
       x="1282.65"
       id="tspan328574" />
  </text>
  <text
     transform="scale(4.0128205,0.24920128)"
     y="-3440.5024"
     x="516.7074"
     style="font-size:46.95399857px;font-family:Arial;text-anchor:middle"
     id="text328576" />
  <text
     sodipodi:linespacing="125%"
     y="-1242.77"
     x="893.53003"
     line-height="125%"
     style="font-size:129.22999573px;line-height:125%;font-family:'Gentium Book Basic';letter-spacing:0;word-spacing:0"
     id="text328578">
    <tspan
       y="-1242.77"
       x="893.53003"
       id="tspan328580" />
  </text>
  <text
     transform="scale(4.0128205,0.24920128)"
     y="-5336.1426"
     x="419.74786"
     style="font-size:46.95399857px;font-family:Arial;text-anchor:middle"
     id="text328582" />
  <text
     sodipodi:linespacing="125%"
     y="-1322.78"
     x="1474.79"
     line-height="125%"
     style="font-size:129.22999573px;line-height:125%;font-family:'Gentium Book Basic';letter-spacing:0;word-spacing:0"
     id="text328584">
    <tspan
       y="-1322.78"
       x="1474.79"
       id="tspan328586" />
  </text>
  <text
     transform="scale(4.0128205,0.24920128)"
     y="-5657.1812"
     x="564.58716"
     style="font-size:46.95399857px;font-family:Arial;text-anchor:middle"
     id="text328588" />
  <text
     sodipodi:linespacing="125%"
     y="91.940002"
     x="-358.01001"
     line-height="125%"
     style="font-size:208.33000183px;line-height:125%;font-family:'Gentium Book Basic';letter-spacing:0;word-spacing:0"
     id="text328590">
    <tspan
       y="91.940002"
       x="-358.01001"
       id="tspan328592" />
  </text>
  <path
     d="M 46.25 75.439453 L 41 82.128906 L 41 82.130859 L 41 100.59961 L 71 130.59961 L 71 429.68945 L 74.65625 435.62891 L 151.02734 512 L 486 512 C 500.397 512 512 500.397 512 486 L 512 119.43945 L 471 78.439453 C 467.416 75.696453 470.92675 78.645453 467.34375 75.564453 L 467.33984 75.560547 L 315.15039 75.560547 L 315.15625 75.566406 L 310.44141 81.123047 L 333.31836 104 L 333.30859 104 L 310.43945 81.130859 L 310.00195 99.880859 L 310.01172 99.890625 L 337.4043 127.28516 L 290.85547 170.23047 L 196.06641 75.441406 L 196.10938 75.488281 L 196.06055 75.439453 L 46.25 75.439453 z "
     id="path328596"
     style="opacity:0.25" />
  <path
     inkscape:connector-curvature="0"
     d="m 46.25,75.44 -5.25,6.688 0,18.469 6.375,5.156 23.625,0 0,323.94 3.656,5.938 33.5,0.938 362.84,-340.37 0,-17.75 c -3.584,-2.743 -0.073,0.206 -3.656,-2.875 l -152.19,0 -4.719,5.563 -0.438,18.75 5.03,4.125 25.25,0 0,20.625 -171.56,158.28 0,-178.47 27.813,0 6.344,-4.813 0,-16.75 -6.813,-7.438 -149.81,0 m 217.03,219.69 -3.938,19.531 26.03,0 3.906,-19.531 -26,0 m 102.72,40.813 c -6.117,0 -11.771,1.259 -16.938,3.813 -5.167,2.494 -9.74,6.086 -13.719,10.719 l 1.438,-12.75 -38.06,0 -3.094,15.688 13.344,2.656 -11.938,59.781 -13.09,2.688 -3.125,15.563 49.719,0 3.125,-15.563 -10.688,-2.688 10.406,-52.03 c 2.197,-2.435 4.746,-4.287 7.656,-5.594 2.91,-1.366 6.121,-2.062 9.625,-2.063 4.751,0 8.03,1.499 9.813,4.469 1.782,2.91 1.957,7.904 0.531,15.03 l -8.03,40.19 -11.03,2.688 -3.125,15.563 46.969,0 3.094,-15.563 -9.969,-2.688 9,-45.06 c 0.178,-0.831 0.284,-1.634 0.344,-2.406 0.119,-0.831 0.294,-1.84 0.531,-2.969 2.197,-2.91 4.815,-5.146 7.844,-6.75 3.03,-1.663 6.38,-2.5 10.06,-2.5 4.692,0 7.937,1.431 9.719,4.281 1.841,2.851 2.02,7.914 0.531,15.219 l -8,40.19 -11.781,2.688 -3.094,15.563 49.781,0 3.125,-15.563 -12.03,-2.688 8.03,-40.09 c 2.672,-13.422 1.904,-23.404 -2.313,-29.938 -4.157,-6.592 -10.998,-9.875 -20.5,-9.875 -6.414,0 -12.311,1.465 -17.656,4.375 -5.286,2.91 -9.93,6.927 -13.969,12.09 -1.129,-5.523 -3.64,-9.643 -7.5,-12.375 -3.86,-2.732 -8.855,-4.094 -15.03,-4.094 m -125.19,1.781 -3.094,15.688 13.344,2.656 -11.938,59.781 -13.09,2.688 -3.125,15.563 51.06,0 3.125,-15.563 -11.938,-2.688 15.594,-78.12 -39.938,0"
     style="fill:#ffffff"
     id="path328764" />
</svg>

<?xml version="1.0" encoding="UTF-8" standalone="no"?>
<svg
   xmlns:dc="http://purl.org/dc/elements/1.1/"
   xmlns:cc="http://creativecommons.org/ns#"
   xmlns:rdf="http://www.w3.org/1999/02/22-rdf-syntax-ns#"
   xmlns:svg="http://www.w3.org/2000/svg"
   xmlns="http://www.w3.org/2000/svg"
   xmlns:sodipodi="http://sodipodi.sourceforge.net/DTD/sodipodi-0.dtd"
   xmlns:inkscape="http://www.inkscape.org/namespaces/inkscape"
   viewBox="0 0 512 512"
   id="svg2"
   version="1.1"
   inkscape:version="0.91 r13725"
   sodipodi:docname="vim.svg">
  <metadata
     id="metadata472">
    <rdf:RDF>
      <cc:Work
         rdf:about="">
        <dc:format>image/svg+xml</dc:format>
        <dc:type
           rdf:resource="http://purl.org/dc/dcmitype/StillImage" />
        <dc:title />
      </cc:Work>
    </rdf:RDF>
  </metadata>
  <sodipodi:namedview
     pagecolor="#ffffff"
     bordercolor="#666666"
     borderopacity="1"
     objecttolerance="10"
     gridtolerance="10"
     guidetolerance="10"
     inkscape:pageopacity="0"
     inkscape:pageshadow="2"
     inkscape:window-width="1366"
     inkscape:window-height="709"
     id="namedview470"
     showgrid="false"
     inkscape:zoom="0.4609375"
     inkscape:cx="418.71186"
     inkscape:cy="156.44173"
     inkscape:window-x="-2"
     inkscape:window-y="-3"
     inkscape:window-maximized="1"
     inkscape:current-layer="svg2" />
  <defs
     id="defs4" />
  <path
     inkscape:connector-curvature="0"
     d="M 26,0 C 11.603,0 0,11.603 0,26 l 0,460 c 0,14.397 11.603,26 26,26 l 460,0 c 14.39699,0 26,-11.603 26,-26 L 512,26 C 512,11.603 500.39699,0 486,0 L 26,0"
     style="fill:#8db173"
     id="path328546" />
  <path
     inkscape:connector-curvature="0"
     d="M 46.25,75.43945 41,82.1289 l 0,0.002 0,18.46876 30,30 0,299.08984 3.65625,5.93946 L 151.02734,512 486,512 c 14.39699,0 25.99999,-11.603 25.99999,-26 l 0,-366.56055 -41,-41 c -3.584,-2.743 -0.0732,0.206 -3.65625,-2.875 l -0.004,-0.004 -152.18944,0 0.006,0.006 -4.71484,5.55664 22.8769,22.87691 -0.01,0 -22.86914,-22.86914 -0.4375,18.75 0.01,0.01 27.39258,27.39453 -46.54883,42.94531 -94.78906,-94.78906 0.043,0.0469 -0.0488,-0.0488 -149.81055,0 z"
     id="path328596"
     style="opacity:0.25" />
  <path
     style="fill:#ffffff"
     d="M 46.246094 75.445312 L 41 82.128906 L 41 100.59766 L 47.375 105.75391 L 71 105.75391 L 71 429.69336 L 74.65625 435.63086 L 108.15625 436.56836 L 470.99609 96.199219 L 470.99609 78.449219 C 467.41209 75.706219 470.92289 78.655219 467.33984 75.574219 L 315.15039 75.574219 L 310.43164 81.136719 L 309.99219 99.886719 L 315.02344 104.01172 L 340.27344 104.01172 L 340.27344 124.63672 L 168.71289 282.91797 L 168.71289 104.44727 L 196.52539 104.44727 L 202.86914 99.634766 L 202.86914 82.884766 L 196.05664 75.445312 L 46.246094 75.445312 z M 263.27734 295.13672 L 259.33984 314.66797 L 285.36914 314.66797 L 289.27539 295.13672 L 263.27734 295.13672 z M 365.99414 335.94922 C 359.87714 335.94922 354.22364 337.20772 349.05664 339.76172 C 343.88964 342.25572 339.31689 345.84747 335.33789 350.48047 L 336.77539 337.73047 L 298.7168 337.73047 L 295.62109 353.41992 L 308.9668 356.07422 L 297.02734 415.85547 L 283.9375 418.54492 L 280.8125 434.10742 L 330.53125 434.10742 L 333.65625 418.54492 L 322.96875 415.85547 L 333.375 363.82617 C 335.572 361.39117 338.12125 359.53942 341.03125 358.23242 C 343.94125 356.86642 347.15225 356.17092 350.65625 356.16992 C 355.40725 356.16992 358.68575 357.66867 360.46875 360.63867 C 362.25075 363.54867 362.426 368.54197 361 375.66797 L 352.9707 415.85742 L 341.93945 418.54688 L 338.81445 434.10938 L 385.7832 434.10938 L 388.87891 418.54688 L 378.9082 415.85742 L 387.9082 370.79883 C 388.0862 369.96783 388.19391 369.16458 388.25391 368.39258 C 388.37291 367.56158 388.5462 366.55283 388.7832 365.42383 C 390.98019 362.51383 393.59991 360.27783 396.62891 358.67383 C 399.65892 357.01083 403.0075 356.17383 406.6875 356.17383 C 411.3795 356.17383 414.62426 357.60314 416.40625 360.45312 C 418.24725 363.30412 418.4265 368.36883 416.9375 375.67383 L 408.9375 415.86328 L 397.15625 418.55078 L 394.0625 434.11328 L 443.84375 434.11328 L 446.96875 418.55078 L 434.93945 415.86328 L 442.96875 375.77344 C 445.64075 362.35144 444.87324 352.36994 440.65625 345.83594 C 436.49924 339.24394 429.65826 335.96094 420.15625 335.96094 C 413.74225 335.96094 407.84499 337.42594 402.5 340.33594 C 397.21399 343.24594 392.57024 347.26278 388.53125 352.42578 C 387.40225 346.90278 384.89125 342.78278 381.03125 340.05078 C 377.17125 337.31878 372.17695 335.95508 366.00195 335.95508 L 365.99414 335.94922 z M 240.81055 337.74219 L 237.7168 353.42578 L 251.06055 356.08008 L 239.12305 415.86133 L 226.0332 418.55078 L 222.9082 434.11328 L 273.96875 434.11328 L 277.09375 418.55078 L 265.1543 415.86133 L 280.74805 337.74219 L 240.81055 337.74219 z "
     id="path3395" />
</svg>
